app/dist/common/images/guotai-junan-securities-co-ltd.svg

<svg height="18" viewBox="0 0 18 18" width="18" xmlns="http://www.w3.org/2000/svg"><path d="m0 0h18v18h-18z" fill="#f0f3fa"/><path d="m9 12.87v-7.72l3.21 2.12v3.25z" fill="#52c3f1"/><path d="m6.3 5.34 2.7-.34v.18l-2.8 2.15c-.13.1-.2.26-.2.43v2.5c0 .16.07.32.2.41l2.8 2.17v.16l-2.7-.32a.47.47 0 0 1 -.21-.07l-2.91-1.97a.41.41 0 0 1 -.18-.34v-2.6c0-.14.07-.27.18-.34l2.9-1.95a.47.47 0 0 1 .21-.08z" fill="#004e97"/><path d="m11.7 5.33-2.7-.33v.18l2.8 2.14c.13.1.2.26.2.43v2.5c0 .16-.07.32-.2.42l-2.8 2.16v.17l2.7-.32c.08 0 .15-.03.21-.08l2.91-1.97c.11-.07.18-.2.18-.34v-2.59a.41.41 0 0 0 -.18-.34l-2.9-1.95a.47.47 0 0 0 -.21-.08z" fill="#0080cc"/></svg>

<!-- by TradingView --><svg width="18" height="18" viewBox="0 0 18 18" xmlns="http://www.w3.org/2000/svg"><path fill="#F0F3FA" d="M0 0h18v18H0z"/><path d="M9 12.87V5.15l3.21 2.12v3.25L9 12.87Z" fill="#52C3F1"/><path d="M6.3 5.34 9 5v.18L6.2 7.33c-.13.1-.2.26-.2.43v2.5c0 .16.07.32.2.41L9 12.84V13l-2.7-.32a.47.47 0 0 1-.21-.07l-2.91-1.97A.41.41 0 0 1 3 10.3V7.7c0-.14.07-.27.18-.34l2.9-1.95a.47.47 0 0 1 .21-.08Z" fill="#004E97"/><path d="M11.7 5.33 9 5v.18l2.8 2.14c.13.1.2.26.2.43v2.5c0 .16-.07.32-.2.42L9 12.83V13l2.7-.32c.08 0 .15-.03.21-.08l2.91-1.97c.11-.07.18-.2.18-.34V7.7a.41.41 0 0 0-.18-.34l-2.9-1.95a.47.47 0 0 0-.21-.08Z" fill="#0080CC"/></svg>
